assets/images/icons/tag.svg

<svg height="18" viewBox="0 0 18 18" width="18" xmlns="http://www.w3.org/2000/svg"><g fill="#232d37" fill-rule="evenodd"><path d="m15.4496399 8.42490555-6.78854191-6.78854191h-7.02473435v7.02445521l6.78886363 6.78096115c.15346494.1536358.36171062.2399618.57886364.2399618s.4253987-.086326.57918536-.2402837l5.86535763-5.86535762c.3165156-.31917613.3162794-.83403494.001006-1.15119493zm1.1588024 2.30554895-5.8677605 5.8677655c-.4603948.4609073-1.08513183.7198854-1.73659089.7198854s-1.2761961-.2589781-1.73593214-.7192266l-7.02818182-7.02000004c-.15364502-.15346616-.23997695-.36171832-.23997695-.57887876v-8.18181818c0-.45186934.36631248-.81818182.81818182-.81818182h8.18181818c.21699531 0 .42510306.08620105.57854191.23963991l7.02990039 7.02990554c.9516852.95736467.9516852 2.50354443 0 3.46090905z" fill-rule="nonzero"/><circle cx="5" cy="5" r="1"/></g></svg>

<?xml version="1.0" encoding="UTF-8"?>
<svg width="18px" height="18px" viewBox="0 0 18 18" version="1.1" xmlns="http://www.w3.org/2000/svg" xmlns:xlink="http://www.w3.org/1999/xlink">
    <title></title>
    <desc></desc>
    <defs></defs>
    <g id="Design" stroke="none" stroke-width="1" fill="none" fill-rule="evenodd">
        <g id="Home-Desktop" transform="translate(-352.000000, -552.000000)" class="fill-layer" fill="#232D37">
            <g id="Group-5" transform="translate(352.000000, 552.000000)">
                <path d="M15.4496399,8.42490555 L8.66109799,1.63636364 L1.63636364,1.63636364 L1.63636364,8.66081885 L8.42522727,15.44178 C8.57869221,15.5954158 8.78693789,15.6817418 9.00409091,15.6817418 C9.22124393,15.6817418 9.42948961,15.5954158 9.58327627,15.4414581 L15.4486339,9.57610048 C15.7651495,9.25692435 15.7649133,8.74206554 15.4496399,8.42490555 Z M16.6084423,10.7304545 L10.7406818,16.59822 C10.280287,17.0591273 9.65554997,17.3181054 9.00409091,17.3181054 C8.35263185,17.3181054 7.72789481,17.0591273 7.26815877,16.5988788 L0.239976954,9.57887876 C0.0863319284,9.4254126 0,9.21716044 0,9 L0,0.818181818 C0,0.366312477 0.366312477,0 0.818181818,0 L9,0 C9.21699531,0 9.42510306,0.0862010512 9.57854191,0.239639906 L16.6084423,7.26954545 C17.5601275,8.22691012 17.5601275,9.77308988 16.6084423,10.7304545 Z" id="Shape" fill-rule="nonzero"></path>
                <circle id="Oval-3" cx="5" cy="5" r="1"></circle>
            </g>
        </g>
    </g>
</svg>
